X:1
T:Stirb Lieb' und Freud'!
T:Satz von Friedrich Silcher
T:Justinus Kerner
T:Stirb Lieb' und Freud'!
T:Creative Commons Attribution Non Commercial 3.0
T:Creative Commons Attribution Non Commercial 3.0
C:Friedrich Silcher
Z:Creative Commons Attribution Non Commercial 3.0
%%score [ ( 1 2 ) ( 3 4 ) ]
L:1/8
Q:1/4=80
M:4/4
K:Bb
V:1 treble-8 nm="Tenor"
V:2 treble-8 
V:3 bass nm="Bass"
V:4 bass 
V:1
"^Andante" F2 | B3 A B2 c2 | d2 ec f2 z e | d3 d dc fe | d4 z2 | F2 | B3 A B2 c2 | d2 ec f2 z e | %8
 d3 d dc fe | d4 z2 | (ff) | c2 d2 c2 z f | c2 ed c2 cc | (d4 ed) eg | f4 z2 (gg) | (f2 ed) e2 c2 | %16
 B4 z2 |] %17
V:2
 F2 | F3 F F2 A2 | B2 A2 B2 x c | B3 B BA dc | B4 x2 | F2 | F3 F F2 A2 | B2 A2 B2 x c | %8
w: 1.~Zu|Augs- burg steht ein|ho- hes Haus, nah|bei dem al- * ten _|Dom,|da|tritt an ei- nem|Mor- gen aus ein|
w: 2.~Dort|vor Ma- ri- ä|hei- lig Bild sie|be- tend nie- * der- *|kniet,|der|Him- mel hat ihr|Herz er- füllt und|
w: 3.~Als-|bald von selbst der|Glo- cke Klang die|Be- ten- den _ er- *|weckt,|das|Mägd- lein wallt die|Hall' ent- lang, es|
w: 4.~Mit|Stau- nen seh- hen|all' die Leut' das|Kränz- lein licht _ im _|Haar,|das|Mägd- lein a- ber|wallt nicht weit, tritt|
w: 5.~Gott|geb', daß die- ses|Krän- ze- lein dies|Mägd- lein fried- * lich _|trag',|es|ist die Al- ler-|lieb- ste mein, bleibts|
 B3 B BA dc | B4 x2 | (BB) | A2 B2 A2 x A | A2 cB A2 AA | (B4 cB) ce | d4 x2 (ee) | (d2 cB) c2 A2 | %16
w: Mäg- de- lein _ gar _|fromm.|Ge- *|sang er- schallt, zum|Do- me * wallt * die|lie- be _ Ge- *|stalt, die _|lie- * * be Ge-|
w: al- le Welt- * lust _|flieht:|"O _|Mut- ter rein! laß|mich al- * lein * dein|ei- * * gen _|sein, dein _|ei- * * * gen|
w: weiß nicht, was _ es _|trägt|auf dem|Haupt so ganz von|Him- mels- * glanz ei- nen|Lil- * * gen- *|kranz, ei- nen|Lil- * * * gen-|
w: vor den Hoch- * al- *|tar:|"Zur _|Non- ne weiht mich|ar- me _ Maid! * stirb|Lieb' _ _ und _|Freund', stirb _|Lieb' _ _ _ und|
w: bis zum jüng- * sten _|Tag.|Sie _|weiß es nicht, mein|Herz zer- * bricht, * stirb|Freud' _ _ und _|Licht, stirb _|Freud' _ _ _ und|
 B4 x2 |] %17
w: stalt.|
w: sein!"|
w: kranz.|
w: Freud'!"|
w: Licht!|
V:3
 F,2 | D,3 C, D,2 F,2 | F,2 F,2 F,2 z G, | F,3 F, F,2 F,2 | F,4 z2 | F,2 | D,3 C, D,2 F,2 | %7
 F,2 F,2 F,2 z G, | F,3 F, F,2 F,2 | F,4 z2 | (F,F,) | F,2 F,2 F,2 z F, | F,2 A,B, F,2 F,F, | %13
 (F,2 B,2 B,2) B,2 | B,4 z2 (B,B,) | (B,4 F,2) F,2 | D,4 z2 |] %17
V:4
 F,2 | B,,3 B,, B,,2 F,2 | B,,2 C,E, D,2 x E, | F,3 F, F,2 F,,2 | B,,4 x2 | F,2 | %6
 B,,3 B,, B,,2 F,2 | B,,2 C,E, D,2 x E, | F,3 F, F,2 F,,2 | B,,4 x2 | (D,D,) | F,2 F,2 F,2 x F, | %12
 F,2 F,2 F,2 F,F, | (B,,4 B,,2) B,,2 | B,,4 x2 (E,E,) | F,4 F,2 F,,2 | B,,4 x2 |] %17

